outputs/icons/date_time/clock_bid_round.svg

<svg xmlns="http://www.w3.org/2000/svg" width="1200" height="1200" fill="none"><path fill="#000" d="M584.97 351.045h-3c-20 0-36 16-36 36v236c0 17.5 9 34 24.5 43l150.435 90.26a301.6 301.6 0 0 1 54.64-50.395L620.97 614.045v-227c0-20-16-36-36-36"/><path fill="#000" d="M100 600c0-276 223.5-500 499.5-500C876 100 1100 324 1100 600c0 8.905-.235 17.76-.695 26.55-1.54 29.38-33.25 45.15-61.375 36.54-22.385-6.85-38.76-28.085-38.095-51.485q.165-5.784.165-11.605c0-221-179-400-400-400S200 379 200 600s179 400 400 400q5.826 0 11.615-.165c23.395-.665 44.625 15.705 51.475 38.08 8.6 28.115-7.155 59.8-36.515 61.365q-13.447.72-27.075.72c-276 0-499.5-224-499.5-500"/><path fill="#000" d="M912.92 1186.57c-66.095 0-125.495-40.345-150.025-101.775l-61.43-154.285c-6.285-16.015 8.715-32.03 25.14-26.76l16.015 5.27c11.35 3.65 20.68 12.37 25.14 23.52l28.585 71.565h15.205V765.89c0-13.99 11.355-25.345 25.34-25.345 13.99 0 25.345 11.355 25.345 25.345v177.395h20.275V725.34c0-13.985 11.35-25.34 25.34-25.34s25.34 11.355 25.34 25.34v217.945h20.275v-187.53c0-13.99 11.355-25.345 25.345-25.345 13.985 0 25.34 11.355 25.34 25.345v187.53h20.275v-126.71c0-13.99 11.35-25.345 25.34-25.345s25.345 11.355 25.345 25.345v207.805c0 89.61-72.58 162.19-162.19 162.19"/></svg>

<svg width="1200" height="1200" viewBox="0 0 1200 1200" fill="none" xmlns="http://www.w3.org/2000/svg"><path d="M584.97 351.045H581.97C561.97 351.045 545.97 367.045 545.97 387.045V623.045C545.97 640.545 554.97 657.045 570.47 666.045L720.905 756.305C736.95 737.34 755.31 720.4 775.545 705.91L620.97 614.045V387.045C620.97 367.045 604.97 351.045 584.97 351.045Z" fill="#1D1E23"/><path d="M100 600C100 324 323.5 100 599.5 100C876 100 1100 324 1100 600C1100 608.905 1099.765 617.76 1099.305 626.55C1097.765 655.93 1066.055 671.7 1037.93 663.09C1015.545 656.24 999.17 635.005 999.835 611.605C999.945 607.75 1000 603.88 1000 600C1000 379 821 200 600 200C379 200 200 379 200 600C200 821 379 1000 600 1000C603.885 1000 607.755 999.945 611.615 999.835C635.01 999.17 656.24 1015.54 663.09 1037.915C671.69 1066.03 655.935 1097.715 626.575 1099.28C617.61 1099.76 608.585 1100 599.5 1100C323.5 1100 100 876 100 600Z" fill="#1D1E23"/><path d="M912.92 1186.57C846.825 1186.57 787.425 1146.225 762.895 1084.795L701.465 930.51C695.18 914.495 710.18 898.48 726.605 903.75L742.62 909.02C753.97 912.67 763.3 921.39 767.76 932.54L796.345 1004.105H811.55V765.89C811.55 751.9 822.905 740.545 836.89 740.545C850.88 740.545 862.235 751.9 862.235 765.89V943.285H882.51V725.34C882.51 711.355 893.86 700 907.85 700C921.84 700 933.19 711.355 933.19 725.34V943.285H953.465V755.755C953.465 741.765 964.82 730.41 978.81 730.41C992.795 730.41 1004.15 741.765 1004.15 755.755V943.285H1024.425V816.575C1024.425 802.585 1035.775 791.23 1049.765 791.23C1063.755 791.23 1075.11 802.585 1075.11 816.575V1024.38C1075.11 1113.99 1002.53 1186.57 912.92 1186.57Z" fill="#1D1E23"/></svg>
